humanity-icon-theme/Humanity/apps/48/internet-feed-reader.svg

<?xml version="1.0" encoding="UTF-8" standalone="no"?>
<!-- Created with Inkscape (http://www.inkscape.org/) -->
<svg
   xmlns:dc="http://purl.org/dc/elements/1.1/"
   xmlns:cc="http://creativecommons.org/ns#"
   xmlns:rdf="http://www.w3.org/1999/02/22-rdf-syntax-ns#"
   xmlns:svg="http://www.w3.org/2000/svg"
   xmlns="http://www.w3.org/2000/svg"
   xmlns:xlink="http://www.w3.org/1999/xlink"
   xmlns:sodipodi="http://sodipodi.sourceforge.net/DTD/sodipodi-0.dtd"
   xmlns:inkscape="http://www.inkscape.org/namespaces/inkscape"
   version="1.0"
   width="48"
   height="48"
   id="svg3637"
   sodipodi:version="0.32"
   inkscape:version="0.46"
   sodipodi:docname="internet-feed-reader.svg"
   inkscape:output_extension="org.inkscape.output.svg.inkscape">
  <metadata
     id="metadata46">
    <rdf:RDF>
      <cc:Work
         rdf:about="">
        <dc:format>image/svg+xml</dc:format>
        <dc:type
           rdf:resource="http://purl.org/dc/dcmitype/StillImage" />
      </cc:Work>
    </rdf:RDF>
  </metadata>
  <sodipodi:namedview
     inkscape:window-height="781"
     inkscape:window-width="1440"
     inkscape:pageshadow="2"
     inkscape:pageopacity="0.0"
     guidetolerance="10.0"
     gridtolerance="10.0"
     objecttolerance="10.0"
     borderopacity="1.0"
     bordercolor="#666666"
     pagecolor="#ffffff"
     id="base"
     showgrid="false"
     inkscape:zoom="3.6681164"
     inkscape:cx="9.3975904"
     inkscape:cy="24"
     inkscape:window-x="0"
     inkscape:window-y="24"
     inkscape:current-layer="svg3637" />
  <defs
     id="defs3639">
    <radialGradient
       cx="4.9929786"
       cy="43.5"
       r="2.5"
       fx="4.9929786"
       fy="43.5"
       id="radialGradient3627"
       xlink:href="#linearGradient3688"
       gradientUnits="userSpaceOnUse"
       gradientTransform="matrix(2.4045408,0,0,0.8,27.985756,10.199998)" />
    <radialGradient
       cx="4.9929786"
       cy="43.5"
       r="2.5"
       fx="4.9929786"
       fy="43.5"
       id="radialGradient3625"
       xlink:href="#linearGradient3688"
       gradientUnits="userSpaceOnUse"
       gradientTransform="matrix(2.4045408,0,0,0.8,-52.014245,-79.800002)" />
    <radialGradient
       cx="4.9929786"
       cy="43.5"
       r="2.5"
       fx="4.9929786"
       fy="43.5"
       id="radialGradient3598"
       xlink:href="#linearGradient3688"
       gradientUnits="userSpaceOnUse"
       gradientTransform="matrix(2.4045408,0,0,0.8,27.985756,10.199998)" />
    <radialGradient
       cx="4.9929786"
       cy="43.5"
       r="2.5"
       fx="4.9929786"
       fy="43.5"
       id="radialGradient3613"
       xlink:href="#linearGradient3688"
       gradientUnits="userSpaceOnUse"
       gradientTransform="matrix(2.4045408,0,0,0.8,-52.014245,-79.800002)" />
    <linearGradient
       id="linearGradient2490-113-765">
      <stop
         id="stop3686"
         style="stop-color:#861318;stop-opacity:1"
         offset="0" />
      <stop
         id="stop3688"
         style="stop-color:#f67e2a;stop-opacity:1"
         offset="1" />
    </linearGradient>
    <linearGradient
       x1="24"
       y1="44"
       x2="24"
       y2="3.8990016"
       id="linearGradient3209"
       xlink:href="#linearGradient2490-113-765"
       gradientUnits="userSpaceOnUse"
       gradientTransform="matrix(0.9756098,0,0,0.9756098,0.5853659,2.053599)" />
    <linearGradient
       id="linearGradient3839">
      <stop
         id="stop3841"
         style="stop-color:#ffed8c;stop-opacity:1"
         offset="0" />
      <stop
         id="stop3843"
         style="stop-color:#fb9858;stop-opacity:1"
         offset="0.26238" />
      <stop
         id="stop3845"
         style="stop-color:#dc572a;stop-opacity:1"
         offset="0.66093999" />
      <stop
         id="stop3847"
         style="stop-color:#9f3110;stop-opacity:1"
         offset="1" />
    </linearGradient>
    <radialGradient
       cx="12.011247"
       cy="10.290615"
       r="19.99999"
       fx="12.011247"
       fy="10.290615"
       id="radialGradient3207"
       xlink:href="#linearGradient3839"
       gradientUnits="userSpaceOnUse"
       gradientTransform="matrix(5.8795466e-8,2.0099739,-2.8994031,0,49.484209,-9.127016)" />
    <linearGradient
       x1="30.149998"
       y1="5.0700607"
       x2="30.149998"
       y2="44.020058"
       id="linearGradient3226"
       xlink:href="#linearGradient3308-4-6"
       gradientUnits="userSpaceOnUse"
       gradientTransform="matrix(0.9756098,0,0,0.9756098,0.5853659,2.053599)" />
    <linearGradient
       x1="15.799999"
       y1="20.445061"
       x2="15.799999"
       y2="44.10902"
       id="linearGradient3234"
       xlink:href="#linearGradient3308-4-6"
       gradientUnits="userSpaceOnUse"
       gradientTransform="matrix(0.9756098,0,0,0.9756098,0.5853659,2.053599)" />
    <linearGradient
       id="linearGradient3308-4-6">
      <stop
         id="stop3310-1-4"
         style="stop-color:#ffffff;stop-opacity:1"
         offset="0" />
      <stop
         id="stop3312-5-3"
         style="stop-color:#ffffff;stop-opacity:0"
         offset="1" />
    </linearGradient>
    <linearGradient
       x1="9.6499996"
       y1="36.845058"
       x2="9.6499996"
       y2="42.99506"
       id="linearGradient3236"
       xlink:href="#linearGradient3308-4-6"
       gradientUnits="userSpaceOnUse"
       gradientTransform="matrix(0.9756098,0,0,0.9756098,0.5853659,2.053599)" />
    <linearGradient
       id="linearGradient8265-821-176-38-919-66-249-7-7">
      <stop
         id="stop2687-1-9"
         style="stop-color:#ffffff;stop-opacity:1"
         offset="0" />
      <stop
         id="stop2689-5-4"
         style="stop-color:#ffffff;stop-opacity:0"
         offset="1" />
    </linearGradient>
    <linearGradient
       x1="16.626165"
       y1="15.298182"
       x2="20.054544"
       y2="24.627615"
       id="linearGradient3569"
       xlink:href="#linearGradient8265-821-176-38-919-66-249-7-7"
       gradientUnits="userSpaceOnUse"
       gradientTransform="matrix(0.9578231,0,0,1.0182827,4.401362,6.1800537)" />
    <linearGradient
       id="linearGradient3688">
      <stop
         id="stop3690"
         style="stop-color:#000000;stop-opacity:1"
         offset="0" />
      <stop
         id="stop3692"
         style="stop-color:#000000;stop-opacity:0"
         offset="1" />
    </linearGradient>
    <radialGradient
       cx="-8.3116722"
       cy="44.750004"
       r="2.5"
       fx="-8.3116722"
       fy="44.750004"
       id="radialGradient3631"
       xlink:href="#linearGradient3688"
       gradientUnits="userSpaceOnUse"
       gradientTransform="matrix(2.4045408,0,0,0.8,27.985756,10.199998)" />
    <radialGradient
       inkscape:collect="always"
       xlink:href="#linearGradient3688"
       id="radialGradient2424"
       gradientUnits="userSpaceOnUse"
       gradientTransform="matrix(1.8034056,0,0,0.8,23.489317,9.199998)"
       cx="-8.3116722"
       cy="44.750004"
       fx="-8.3116722"
       fy="44.750004"
       r="2.5" />
    <linearGradient
       inkscape:collect="always"
       xlink:href="#linearGradient8265-821-176-38-919-66-249-7-7"
       id="linearGradient2427"
       gradientUnits="userSpaceOnUse"
       gradientTransform="matrix(0.9578231,0,0,1.0182827,4.401362,6.1800537)"
       x1="16.626165"
       y1="15.298182"
       x2="20.054544"
       y2="24.627615" />
    <linearGradient
       inkscape:collect="always"
       xlink:href="#linearGradient3308-4-6"
       id="linearGradient2430"
       gradientUnits="userSpaceOnUse"
       gradientTransform="matrix(0.9756098,0,0,0.9756098,0.5853659,2.053599)"
       x1="9.6499996"
       y1="36.845058"
       x2="9.6499996"
       y2="42.99506" />
    <linearGradient
       inkscape:collect="always"
       xlink:href="#linearGradient3308-4-6"
       id="linearGradient2433"
       gradientUnits="userSpaceOnUse"
       gradientTransform="matrix(0.9756098,0,0,0.9756098,0.5853659,2.053599)"
       x1="15.799999"
       y1="20.445061"
       x2="15.799999"
       y2="44.10902" />
    <linearGradient
       inkscape:collect="always"
       xlink:href="#linearGradient3308-4-6"
       id="linearGradient2436"
       gradientUnits="userSpaceOnUse"
       gradientTransform="matrix(0.9756098,0,0,0.9756098,0.5853659,2.053599)"
       x1="30.149998"
       y1="5.0700607"
       x2="30.149998"
       y2="44.020058" />
    <radialGradient
       inkscape:collect="always"
       xlink:href="#linearGradient3839"
       id="radialGradient2439"
       gradientUnits="userSpaceOnUse"
       gradientTransform="matrix(5.8795466e-8,2.0099739,-2.8994031,0,49.484209,-9.127016)"
       cx="12.011247"
       cy="10.290615"
       fx="12.011247"
       fy="10.290615"
       r="19.99999" />
    <linearGradient
       inkscape:collect="always"
       xlink:href="#linearGradient2490-113-765"
       id="linearGradient2441"
       gradientUnits="userSpaceOnUse"
       gradientTransform="matrix(0.9756098,0,0,0.9756098,0.5853659,2.053599)"
       x1="24"
       y1="44"
       x2="24"
       y2="3.8990016" />
  </defs>
  <g
     id="g3619"
     transform="translate(-16,0)">
    <rect
       style="opacity:0.3;fill:url(#radialGradient3625);fill-opacity:1;stroke:none"
       id="rect3621"
       transform="scale(-1,-1)"
       y="-47"
       x="-40"
       height="4"
       width="6" />
    <rect
       style="opacity:0.3;fill:url(#radialGradient3627);fill-opacity:1;stroke:none"
       id="rect3623"
       y="43"
       x="40"
       height="4"
       width="6" />
  </g>
  <g
     id="g3615">
    <rect
       style="opacity:0.3;fill:url(#radialGradient3613);fill-opacity:1;stroke:none"
       id="rect3611"
       transform="scale(-1,-1)"
       y="-47"
       x="-40"
       height="4"
       width="6" />
    <rect
       style="opacity:0.3;fill:url(#radialGradient3598);fill-opacity:1;stroke:none"
       id="rect2801"
       y="43"
       x="40"
       height="4"
       width="6" />
  </g>
  <path
     style="opacity:0.3;fill:url(#radialGradient2424);fill-opacity:1;fill-rule:nonzero;stroke:none;stroke-width:1;stroke-linecap:butt;stroke-linejoin:miter;marker:none;marker-start:none;marker-mid:none;marker-end:none;stroke-miterlimit:4;stroke-dasharray:none;stroke-dashoffset:0;stroke-opacity:1;visibility:visible;display:inline;overflow:visible;enable-background:accumulate"
     id="path3629"
     d="M 13,45 C 13,46.104569 10.985281,47 8.5,47 C 6.0147186,47 4,46.104569 4,45 C 4,43.895431 6.0147186,43 8.5,43 C 10.985281,43 13,43.895431 13,45 z" />
  <path
     style="font-size:13.58991337px;font-style:normal;font-variant:normal;font-weight:bold;font-stretch:normal;text-align:start;line-height:125%;writing-mode:lr-tb;text-anchor:start;fill:url(#radialGradient2439);fill-opacity:1;fill-rule:nonzero;stroke:url(#linearGradient2441);stroke-width:0.97560978;stroke-linecap:round;stroke-linejoin:round;marker:none;marker-start:none;marker-mid:none;marker-end:none;stroke-miterlimit:4;stroke-dasharray:none;stroke-dashoffset:0;stroke-opacity:1;visibility:visible;display:inline;overflow:visible;enable-background:accumulate;font-family:Bitstream Vera Serif"
     id="path8636"
     d="M 4.4878049,5.9878051 L 4.4878049,12.850575 C 22.077017,13.178336 36.285516,27.406039 36.608817,45.012195 L 43.512195,45.012195 C 43.185827,23.596236 25.883677,6.3137876 4.4878049,5.9878051 z M 4.4878049,21.784358 L 4.4878049,27.95679 C 13.771844,28.279836 21.2198,35.720135 21.54321,45.012195 L 27.715642,45.012195 C 27.389625,32.293953 17.194313,22.109988 4.4878049,21.784358 z M 8.5486158,37.418479 C 7.459887,37.418511 6.6225377,37.800758 5.8684802,38.555506 C 5.1134041,39.297849 4.731454,40.105302 4.7314536,41.195033 C 4.7314536,42.267735 5.116063,43.094889 5.8684802,43.83456 C 6.6186412,44.572055 7.4515436,44.931005 8.5486158,44.930979 C 9.6116646,44.931004 10.40881,44.574018 11.147535,43.83456 C 11.903982,43.077409 12.284549,42.250596 12.284561,41.195033 C 12.284549,40.105295 11.90261,39.297846 11.147535,38.555506 C 10.404925,37.798702 9.6031094,37.41851 8.5486158,37.418479 z" />
  <path
     style="font-size:13.58991337px;font-style:normal;font-variant:normal;font-weight:bold;font-stretch:normal;text-align:start;line-height:125%;writing-mode:lr-tb;text-anchor:start;opacity:0.4;fill:none;fill-opacity:1;fill-rule:nonzero;stroke:url(#linearGradient2436);stroke-width:0.97560978;stroke-linecap:round;stroke-linejoin:round;marker:none;marker-start:none;marker-mid:none;marker-end:none;stroke-miterlimit:4;stroke-dasharray:none;stroke-dashoffset:0;stroke-opacity:1;visibility:visible;display:inline;overflow:visible;enable-background:accumulate;font-family:Bitstream Vera Serif"
     id="path3232"
     d="M 5.4375,7.03125 C 5.4375,8.6875 5.4375,10.34375 5.4375,12 C 16.814481,12.411387 27.661186,19.135797 33.159652,29.092145 C 35.734604,33.654803 37.20668,38.829422 37.4375,44.0625 C 39.114583,44.0625 40.791667,44.0625 42.46875,44.0625 C 42.099811,32.605861 36.258375,21.501875 27.045192,14.687552 C 20.837478,10.016581 13.199618,7.318626 5.4375,7.03125 z" />
  <path
     style="font-size:13.58991337px;font-style:normal;font-variant:normal;font-weight:bold;font-stretch:normal;text-align:start;line-height:125%;writing-mode:lr-tb;text-anchor:start;opacity:0.4;fill:none;fill-opacity:1;fill-rule:nonzero;stroke:url(#linearGradient2433);stroke-width:0.97560978;stroke-linecap:round;stroke-linejoin:round;marker:none;marker-start:none;marker-mid:none;marker-end:none;stroke-miterlimit:4;stroke-dasharray:none;stroke-dashoffset:0;stroke-opacity:1;visibility:visible;display:inline;overflow:visible;enable-background:accumulate;font-family:Bitstream Vera Serif"
     id="path3230"
     d="M 5.4375,22.84375 C 5.4375,24.28125 5.4375,25.71875 5.4375,27.15625 C 13.175519,27.681662 20.135613,33.613349 21.871963,41.173431 C 22.348207,42.40714 21.731483,44.608675 23.633746,44.0625 C 24.641247,44.0625 25.648749,44.0625 26.65625,44.0625 C 26.192732,35.715269 20.707275,27.912488 12.998367,24.671197 C 10.607188,23.635143 8.0370901,23.018747 5.4375,22.84375 z" />
  <path
     style="font-size:13.58991337px;font-style:normal;font-variant:normal;font-weight:bold;font-stretch:normal;text-align:start;line-height:125%;writing-mode:lr-tb;text-anchor:start;opacity:0.4;fill:none;fill-opacity:1;fill-rule:nonzero;stroke:url(#linearGradient2430);stroke-width:0.97560978;stroke-linecap:round;stroke-linejoin:round;marker:none;marker-start:none;marker-mid:none;marker-end:none;stroke-miterlimit:4;stroke-dasharray:none;stroke-dashoffset:0;stroke-opacity:1;visibility:visible;display:inline;overflow:visible;enable-background:accumulate;font-family:Bitstream Vera Serif"
     id="path3219"
     d="M 8.5625,38.34375 C 6.4613378,38.248482 4.7676312,40.957202 6.1342237,42.710306 C 7.1639769,44.385503 9.8770048,44.464995 10.892212,42.731957 C 12.176216,40.959624 10.661459,38.35276 8.5625,38.34375 z" />
  <path
     style="opacity:0.2;fill:url(#linearGradient2427);fill-opacity:1;fill-rule:evenodd;stroke:none;stroke-width:1;stroke-linecap:butt;stroke-linejoin:miter;marker:none;marker-start:none;marker-mid:none;marker-end:none;stroke-miterlimit:4;stroke-dasharray:none;stroke-dashoffset:0;stroke-opacity:1;visibility:visible;display:inline;overflow:visible;enable-background:accumulate"
     id="path3390"
     d="M 4.46875,5.5 C 4.202595,5.5116078 3.9944302,5.7336502 4,6 L 4,12.84375 C 3.9973097,12.977165 4.0491238,13.105911 4.1434815,13.200269 C 4.2378392,13.294626 4.3665852,13.34644 4.5,13.34375 C 15.087368,13.541037 24.384383,18.849687 30.125,26.90625 C 30.240014,27.062007 30.43593,27.135476 30.625,27.09375 L 38.0625,25.84375 C 38.212409,25.807954 38.336755,25.703742 38.398208,25.5624 C 38.459661,25.421059 38.451065,25.259045 38.375,25.125 C 31.473754,13.530217 18.908304,5.7195215 4.5,5.5 C 4.489586,5.4996679 4.479164,5.4996679 4.46875,5.5 z M 4.46875,21.28125 C 4.202595,21.292858 3.9944302,21.5149 4,21.78125 L 4,27.96875 C 3.9944302,28.2351 4.202595,28.457142 4.46875,28.46875 C 7.0033916,28.556945 9.3910861,29.183786 11.53125,30.25 C 11.629171,30.294405 11.738975,30.305385 11.84375,30.28125 L 20.40625,28.8125 C 20.577403,28.773682 20.714747,28.64633 20.766359,28.478591 C 20.817971,28.310852 20.775976,28.128319 20.65625,28 C 16.435463,23.986651 10.762752,21.441746 4.5,21.28125 C 4.489586,21.280918 4.479164,21.280918 4.46875,21.28125 z" />
</svg>

<?xml version="1.0" encoding="UTF-8" standalone="no"?>
<!-- Created with Inkscape (http://www.inkscape.org/) -->
<svg id="svg3637" xmlns:rdf="http://www.w3.org/1999/02/22-rdf-syntax-ns#" xmlns="http://www.w3.org/2000/svg" height="48" width="48" version="1.0" xmlns:cc="http://creativecommons.org/ns#" xmlns:xlink="http://www.w3.org/1999/xlink" xmlns:dc="http://purl.org/dc/elements/1.1/">
 <metadata id="metadata46">
  <rdf:RDF>
   <cc:Work rdf:about="">
    <dc:format>image/svg+xml</dc:format>
    <dc:type rdf:resource="http://purl.org/dc/dcmitype/StillImage"/>
   </cc:Work>
  </rdf:RDF>
 </metadata>
 <defs id="defs3639">
  <radialGradient id="radialGradient3627" xlink:href="#linearGradient3688" gradientUnits="userSpaceOnUse" cy="43.5" cx="4.993" gradientTransform="matrix(2.4045 0 0 .8 27.986 10.2)" r="2.5"/>
  <radialGradient id="radialGradient3625" xlink:href="#linearGradient3688" gradientUnits="userSpaceOnUse" cy="43.5" cx="4.993" gradientTransform="matrix(2.4045 0 0 .8 -52.014 -79.8)" r="2.5"/>
  <linearGradient id="linearGradient3308-4-6">
   <stop id="stop3310-1-4" style="stop-color:#fff" offset="0"/>
   <stop id="stop3312-5-3" style="stop-color:#fff;stop-opacity:0" offset="1"/>
  </linearGradient>
  <linearGradient id="linearGradient3688">
   <stop id="stop3690" offset="0"/>
   <stop id="stop3692" style="stop-opacity:0" offset="1"/>
  </linearGradient>
  <radialGradient id="radialGradient2424" xlink:href="#linearGradient3688" gradientUnits="userSpaceOnUse" cy="44.75" cx="-8.3117" gradientTransform="matrix(1.8034 0 0 .8 23.489 9.2)" r="2.5"/>
  <linearGradient id="linearGradient2427" y2="24.628" gradientUnits="userSpaceOnUse" x2="20.055" gradientTransform="matrix(.95782 0 0 1.0183 4.4014 6.1801)" y1="15.298" x1="16.626">
   <stop id="stop2687-1-9" style="stop-color:#fff" offset="0"/>
   <stop id="stop2689-5-4" style="stop-color:#fff;stop-opacity:0" offset="1"/>
  </linearGradient>
  <linearGradient id="linearGradient2430" y2="42.995" xlink:href="#linearGradient3308-4-6" gradientUnits="userSpaceOnUse" x2="9.65" gradientTransform="matrix(.97561 0 0 .97561 .58537 2.0536)" y1="36.845" x1="9.65"/>
  <linearGradient id="linearGradient2433" y2="44.109" xlink:href="#linearGradient3308-4-6" gradientUnits="userSpaceOnUse" x2="15.8" gradientTransform="matrix(.97561 0 0 .97561 .58537 2.0536)" y1="20.445" x1="15.8"/>
  <linearGradient id="linearGradient2436" y2="44.02" xlink:href="#linearGradient3308-4-6" gradientUnits="userSpaceOnUse" x2="30.15" gradientTransform="matrix(.97561 0 0 .97561 .58537 2.0536)" y1="5.0701" x1="30.15"/>
  <radialGradient id="radialGradient2439" gradientUnits="userSpaceOnUse" cy="10.291" cx="12.011" gradientTransform="matrix(5.8795e-8 2.01 -2.8994 0 49.484 -9.127)" r="20">
   <stop id="stop3841" style="stop-color:#ffed8c" offset="0"/>
   <stop id="stop3843" style="stop-color:#fb9858" offset=".26238"/>
   <stop id="stop3845" style="stop-color:#dc572a" offset=".66094"/>
   <stop id="stop3847" style="stop-color:#9f3110" offset="1"/>
  </radialGradient>
  <linearGradient id="linearGradient2441" y2="3.899" gradientUnits="userSpaceOnUse" x2="24" gradientTransform="matrix(.97561 0 0 .97561 .58537 2.0536)" y1="44" x1="24">
   <stop id="stop3686" style="stop-color:#861318" offset="0"/>
   <stop id="stop3688" style="stop-color:#f67e2a" offset="1"/>
  </linearGradient>
 </defs>
 <g id="g3619" transform="translate(-16)">
  <rect id="rect3621" style="opacity:.3;fill:url(#radialGradient3625)" transform="scale(-1)" height="4" width="6" y="-47" x="-40"/>
  <rect id="rect3623" style="opacity:.3;fill:url(#radialGradient3627)" height="4" width="6" y="43" x="40"/>
 </g>
 <g id="g3615">
  <rect id="rect3611" style="opacity:.3;fill:url(#radialGradient3625)" transform="scale(-1)" height="4" width="6" y="-47" x="-40"/>
  <rect id="rect2801" style="opacity:.3;fill:url(#radialGradient3627)" height="4" width="6" y="43" x="40"/>
 </g>
 <path id="path3629" style="opacity:.3;fill:url(#radialGradient2424)" d="m13 45c0 1.105-2.015 2-4.5 2-2.4853 0-4.5-0.895-4.5-2s2.0147-2 4.5-2c2.485 0 4.5 0.895 4.5 2z"/>
 <path id="path8636" style="stroke-linejoin:round;stroke:url(#linearGradient2441);stroke-linecap:round;stroke-width:.97561;fill:url(#radialGradient2439)" d="m4.4878 5.9878v6.8632c17.589 0.327 31.798 14.555 32.121 32.161h6.903c-0.326-21.416-17.628-38.698-39.024-39.024zm0 15.796v6.173c9.2842 0.323 16.732 7.763 17.055 17.055h6.173c-0.326-12.718-10.522-22.902-23.228-23.228zm4.0608 15.634c-1.0887 0.001-1.9261 0.383-2.6801 1.138-0.7551 0.742-1.137 1.549-1.137 2.639 0 1.073 0.3846 1.9 1.137 2.64 0.7501 0.737 1.583 1.096 2.6801 1.096 1.0631 0 1.8604-0.357 2.5994-1.096 0.756-0.758 1.137-1.584 1.137-2.64 0-1.09-0.382-1.897-1.137-2.639-0.743-0.757-1.5449-1.137-2.5994-1.138z"/>
 <path id="path3232" style="stroke-linejoin:round;opacity:.4;stroke:url(#linearGradient2436);stroke-linecap:round;stroke-width:.97561;fill:none" d="m5.4375 7.0312v4.9688c11.376 0.411 22.224 7.136 27.722 17.092 2.575 4.563 4.047 9.737 4.278 14.97h5.031c-0.369-11.456-6.211-22.56-15.424-29.374-6.208-4.671-13.845-7.3694-21.608-7.6568z"/>
 <path id="path3230" style="stroke-linejoin:round;opacity:.4;stroke:url(#linearGradient2433);stroke-linecap:round;stroke-width:.97561;fill:none" d="m5.4375 22.844v4.312c7.7385 0.526 14.698 6.457 16.434 14.017 0.476 1.234-0.141 3.436 1.762 2.889h3.022c-0.463-8.347-5.949-16.15-13.658-19.391-2.391-1.036-4.9609-1.652-7.5605-1.827z"/>
 <path id="path3219" style="stroke-linejoin:round;opacity:.4;stroke:url(#linearGradient2430);stroke-linecap:round;stroke-width:.97561;fill:none" d="m8.5625 38.344c-2.1012-0.096-3.7949 2.613-2.4283 4.366 1.0298 1.676 3.7428 1.755 4.7578 0.022 1.284-1.772-0.231-4.379-2.3295-4.388z"/>
 <path id="path3390" style="opacity:.2;fill-rule:evenodd;fill:url(#linearGradient2427)" d="m4.4688 5.5c-0.2662 0.0116-0.4744 0.2337-0.4688 0.5v6.844c-0.0027 0.133 0.0491 0.262 0.1435 0.356 0.0943 0.095 0.2231 0.146 0.3565 0.144 10.587 0.197 19.884 5.506 25.625 13.562 0.115 0.156 0.311 0.229 0.5 0.188l7.437-1.25c0.15-0.036 0.275-0.14 0.336-0.282 0.062-0.141 0.053-0.303-0.023-0.437-6.901-11.595-19.467-19.406-33.875-19.625-0.0104-0.0003-0.0208-0.0003-0.0312 0zm0 15.781c-0.2662 0.012-0.4744 0.234-0.4688 0.5v6.188c-0.0056 0.266 0.2026 0.488 0.4688 0.5 2.5346 0.088 4.9223 0.715 7.0622 1.781 0.098 0.044 0.208 0.055 0.313 0.031l8.562-1.469c0.171-0.038 0.309-0.166 0.36-0.333 0.052-0.168 0.01-0.351-0.11-0.479-4.221-4.013-9.893-6.558-16.156-6.719h-0.0312z"/>
</svg>
